icons/patient_band_fill.svg

<svg width="48" height="48" viewBox="0 0 48 48" fill="none" xmlns="http://www.w3.org/2000/svg">
<path fill-rule="evenodd" clip-rule="evenodd" d="M42 26.5C42 26.7761 41.7761 27 41.5 27H37V29H40.5C40.7761 29 41 29.2239 41 29.5V30.5C41 30.7761 40.7761 31 40.5 31H32.0526V33H37.3005C34.4504 35.2724 30.0783 35.5241 26.8268 33.7328L20.9825 30.513L20.0175 32.2648L25.8617 35.4845C29.8088 37.659 35.1378 37.3726 38.6678 34.4662C39.1682 34.0542 39.6832 33.5789 40.2218 33H40.5C41.8807 33 43 31.8807 43 30.5V29.5C43 29.1874 42.9426 28.8882 42.8378 28.6123C43.5364 28.169 44 27.3886 44 26.5V25.5C44 24.6114 43.5364 23.831 42.8378 23.3877C42.9426 23.1118 43 22.8126 43 22.5V21.5C43 20.2905 42.1411 19.2816 41 19.05V18.2394C41 16.6728 39.7946 15.3699 38.2326 15.2484L35.0388 15H34.3859C29.3922 15 24.4716 16.2009 20.0393 18.5013L20.9607 20.2765C25.1083 18.1238 29.7129 17 34.3859 17H34.9612L38.0775 17.2424C38.5982 17.2829 39 17.7172 39 18.2394V19H37V21H40.5C40.7761 21 41 21.2239 41 21.5V22.5C41 22.7761 40.7761 23 40.5 23H37V25H41.5C41.7761 25 42 25.2239 42 25.5V26.5Z" fill="black"/>
<path fill-rule="evenodd" clip-rule="evenodd" d="M6 20L15 20V22L6 22L6 20Z" fill="black"/>
<path fill-rule="evenodd" clip-rule="evenodd" d="M6 30H15V32H6L6 30Z" fill="black"/>
<path fill-rule="evenodd" clip-rule="evenodd" d="M14 10C14 8.34315 15.3431 7 17 7C18.6569 7 20 8.34315 20 10V18C20 19.6569 18.6569 21 17 21C15.3431 21 14 19.6569 14 18V10ZM18 10.5554C18 11.1077 17.5523 11.5554 17 11.5554C16.4477 11.5554 16 11.1077 16 10.5554C16 10.0031 16.4477 9.55542 17 9.55542C17.5523 9.55542 18 10.0031 18 10.5554ZM17 15C17.5523 15 18 14.5523 18 14C18 13.4477 17.5523 13 17 13C16.4477 13 16 13.4477 16 14C16 14.5523 16.4477 15 17 15Z" fill="black"/>
<path fill-rule="evenodd" clip-rule="evenodd" d="M14 10C14 8.34315 15.3431 7 17 7C18.6569 7 20 8.34315 20 10V18C20 19.6569 18.6569 21 17 21C15.3431 21 14 19.6569 14 18V10ZM18 16.8293V18C18 18.5523 17.5523 19 17 19C16.4477 19 16 18.5523 16 18V16.8293C16.3128 16.9398 16.6494 17 17 17C17.3506 17 17.6872 16.9398 18 16.8293ZM17.8283 13.4396C17.9367 13.5995 18 13.7923 18 14C18 14.5523 17.5523 15 17 15C16.4477 15 16 14.5523 16 14C16 13.7923 16.0633 13.5995 16.1717 13.4396C16.3515 13.1743 16.6554 13 17 13C17.3446 13 17.6485 13.1743 17.8283 13.4396ZM17.8283 11.1158C17.9367 10.956 18 10.7631 18 10.5554C18 10.0031 17.5523 9.55542 17 9.55542C16.4477 9.55542 16 10.0031 16 10.5554C16 10.7631 16.0633 10.956 16.1717 11.1158C16.3515 11.3811 16.6554 11.5554 17 11.5554C17.3446 11.5554 17.6485 11.3811 17.8283 11.1158Z" fill="black"/>
<path fill-rule="evenodd" clip-rule="evenodd" d="M12 20C12 18.8954 12.8954 18 14 18H20C21.1046 18 22 18.8954 22 20V32C22 32.7571 21.5793 33.4159 20.959 33.7555C20.4745 34.0207 20 34.4477 20 35C20 35.5523 19.5523 36 19 36H15C14.4477 36 14 35.5523 14 35C14 34.4477 13.5255 34.0207 13.041 33.7555C12.4207 33.4159 12 32.7571 12 32V20ZM15.5 21C15.2239 21 15 21.2239 15 21.5V30.5C15 30.7761 15.2239 31 15.5 31H18.5C18.7761 31 19 30.7761 19 30.5V21.5C19 21.2239 18.7761 21 18.5 21H15.5Z" fill="black"/>
<path fill-rule="evenodd" clip-rule="evenodd" d="M15.2357 32.9862C15.4599 33.2511 15.6804 33.5913 15.8266 34H18.1734C18.3196 33.5913 18.5401 33.2511 18.7643 32.9862M14 18C12.8954 18 12 18.8954 12 20V32C12 32.7571 12.4207 33.4159 13.041 33.7555C13.5255 34.0207 14 34.4477 14 35C14 35.5523 14.4477 36 15 36H19C19.5523 36 20 35.5523 20 35C20 34.4477 20.4745 34.0207 20.959 33.7555C21.5793 33.4159 22 32.7571 22 32V20C22 18.8954 21.1046 18 20 18H14ZM15 21.5C15 21.2239 15.2239 21 15.5 21H18.5C18.7761 21 19 21.2239 19 21.5V30.5C19 30.7761 18.7761 31 18.5 31H15.5C15.2239 31 15 30.7761 15 30.5V21.5Z" fill="black"/>
</svg>

<svg
  xmlns="http://www.w3.org/2000/svg"
  width="24"
  height="24"
  viewBox="0 0 24 24"
  fill="none"
  stroke="currentColor"
  stroke-width="2"
  stroke-linecap="round"
  stroke-linejoin="round"
>
  <path
    fill-rule="evenodd"
    d="M42 26.5a.5.5 0 0 1-.5.5H37v2h3.5a.5.5 0 0 1 .5.5v1a.5.5 0 0 1-.5.5h-8.447v2H37.3c-2.85 2.272-7.223 2.524-10.474.733l-5.844-3.22-.966 1.752 5.845 3.22c3.947 2.174 9.276 1.888 12.806-1.019.5-.412 1.015-.887 1.554-1.466h.278a2.5 2.5 0 0 0 2.5-2.5v-1c0-.313-.057-.612-.162-.888A2.5 2.5 0 0 0 44 26.5v-1c0-.889-.464-1.669-1.162-2.112.105-.276.162-.575.162-.888v-1a2.5 2.5 0 0 0-2-2.45v-.81a3 3 0 0 0-2.767-2.992L35.039 15h-.653c-4.994 0-9.914 1.2-14.347 3.501l.922 1.775A29.14 29.14 0 0 1 34.386 17h.575l3.117.242a1 1 0 0 1 .922.997V19h-2v2h3.5a.5.5 0 0 1 .5.5v1a.5.5 0 0 1-.5.5H37v2h4.5a.5.5 0 0 1 .5.5z"
    clip-rule="evenodd"
  />
  <path fill-rule="evenodd" d="M6 20h9v2H6z" clip-rule="evenodd" />
  <path fill-rule="evenodd" d="M6 30h9v2H6z" clip-rule="evenodd" />
  <path
    fill-rule="evenodd"
    d="M14 10a3 3 0 1 1 6 0v8a3 3 0 1 1-6 0zm4 .555a1 1 0 1 1-2 0 1 1 0 0 1 2 0M17 15a1 1 0 1 0 0-2 1 1 0 0 0 0 2"
    clip-rule="evenodd"
  />
  <path
    fill-rule="evenodd"
    d="M14 10a3 3 0 1 1 6 0v8a3 3 0 1 1-6 0zm4 6.83V18a1 1 0 1 1-2 0v-1.17a3 3 0 0 0 2 0m-.172-3.39a1 1 0 1 1-1.657 1.12 1 1 0 0 1 1.657-1.12m0-2.324a1 1 0 1 0-1.657-1.12 1 1 0 0 0 1.657 1.12"
    clip-rule="evenodd"
  />
  <path
    fill-rule="evenodd"
    d="M12 20a2 2 0 0 1 2-2h6a2 2 0 0 1 2 2v12a2 2 0 0 1-1.041 1.755c-.485.266-.959.693-.959 1.245a1 1 0 0 1-1 1h-4a1 1 0 0 1-1-1c0-.552-.475-.98-.959-1.245A2 2 0 0 1 12 32zm3.5 1a.5.5 0 0 0-.5.5v9a.5.5 0 0 0 .5.5h3a.5.5 0 0 0 .5-.5v-9a.5.5 0 0 0-.5-.5z"
    clip-rule="evenodd"
  />
  <path
    fill-rule="evenodd"
    d="M15.236 32.986a3.3 3.3 0 0 1 .59 1.014h2.347a3.3 3.3 0 0 1 .591-1.014M14 18a2 2 0 0 0-2 2v12a2 2 0 0 0 1.041 1.755c.484.266.959.693.959 1.245a1 1 0 0 0 1 1h4a1 1 0 0 0 1-1c0-.552.474-.98.959-1.245A2 2 0 0 0 22 32V20a2 2 0 0 0-2-2zm1 3.5a.5.5 0 0 1 .5-.5h3a.5.5 0 0 1 .5.5v9a.5.5 0 0 1-.5.5h-3a.5.5 0 0 1-.5-.5z"
    clip-rule="evenodd"
  />
</svg>
